**kern	**kern	**dynam
*part1	*part1	*part1
*staff2	*staff1	*
*I"Piano	*	*
*clefF4	*clefG2	*
*k[b-e-a-d-]	*k[b-e-a-d-]	*
=1	=1	=1
!	!	!LO:DY:a
2EE-	(4B- 4d- 4g	p
.	4c 4e- 4a-	.
4E-	4A- 4c 4f	.
=	=	=
2EE-	4G 4B- 4e-	.
.	4d- 4f 4b-	.
4E-	4c) 4e- 4a-	.
=	=	=
!	!LO:TX:a:i:t=legato	!
2EE-	4B- 4d- 4g	.
.	4c 4e- 4a-	.
4E-	4A- 4c 4f	.
=	=	=
!	!	!LO:DY:a
2EE-	4G 4B- 4e-	<
.	4f 4a- 4dd-	.
4E-	4e- 4g 4cc	.
=	=	=
2EE-	4d- 4f 4b-	.
.	4e- 4g 4cc	.
4E-	4c 4e- 4a-	[
=	=	=
2EE-	4B- 4d- 4g	.
.	4dd- 4ff 4bb-	.
4E-	4cc 4ee- 4aa-	.
=	=	=
!	!LO:TX:a:i:t=dim.	!
2EE-	4b- 4dd- 4gg	.
.	4cc 4ee- 4aa-	.
4E-	4a- 4cc 4ff	.
=	=	=
*-	*-	*-
!!!system-decoration: {(s1,s2)}
